client/src/assets/plane.svg

<svg width="13" height="13" viewBox="0 0 13 13" fill="none" xmlns="http://www.w3.org/2000/svg">
    <path d="M3.9 13H5.2L8.45 7.52632H12.025C12.5645 7.52632 13 7.06789 13 6.5C13 5.93211 12.5645 5.47368 12.025 5.47368H8.45L5.2 0H3.9L5.525 5.47368H1.95L0.975 4.10526H0L0.65 6.5L0 8.89474H0.975L1.95 7.52632H5.525L3.9 13Z" fill="#D2D5D6"/>
</svg>

<svg width="13" height="13" fill="none" xmlns="http://www.w3.org/2000/svg"><path d="M3.9 13h1.3l3.25-5.474h3.575c.54 0 .975-.458.975-1.026 0-.568-.435-1.026-.975-1.026H8.45L5.2 0H3.9l1.625 5.474H1.95L.975 4.105H0L.65 6.5 0 8.895h.975l.975-1.369h3.575L3.9 13z" fill="#D2D5D6"/></svg>
